images/mQQQ.svg

<svg height="250" viewBox="0 0 250 250" width="250" xmlns="http://www.w3.org/2000/svg"><path d="m250 125c0 69.035156-55.964844 125-125 125s-125-55.964844-125-125 55.964844-125 125-125 125 55.964844 125 125zm0 0" fill="#fff" fill-rule="evenodd"/><path d="m196.429688 53.570312v99.328126l-43.320313 43.53125h-99.539063v-142.859376zm-114.285157 11.039063c-11.984375 0-19.050781 9.195313-19.050781 22.378906 0 13.179688 7.066406 22.378907 19.050781 22.378907 2.457031 0 4.605469-.308594 6.449219-1.226563l3.074219 4.597656 6.757812-4.292969-3.378906-4.597656c3.6875-3.984375 5.835937-9.808594 6.144531-16.859375 0-13.183593-7.066406-22.378906-19.046875-22.378906zm41.472657 0c-11.980469 0-19.046876 9.195313-19.046876 22.378906 0 13.179688 7.066407 22.378907 19.046876 22.378907 2.457031 0 4.609374-.308594 6.453124-1.226563l3.070313 4.597656 6.757813-4.292969-3.378907-4.597656c3.6875-3.984375 5.839844-9.808594 6.144531-16.859375 0-13.183593-7.066406-22.378906-19.046874-22.378906zm41.167968 0c-11.980468 0-19.046875 9.195313-19.046875 22.378906 0 13.179688 7.066407 22.378907 19.046875 22.378907 2.457032 0 4.609375-.308594 6.453125-1.226563l3.070313 4.597656 6.757812-4.292969-3.378906-4.597656c3.6875-3.984375 6.144531-9.808594 6.144531-16.859375 0-13.183593-7.066406-22.378906-19.046875-22.378906zm-41.476562 8.582031c7.066406 0 10.140625 6.132813 10.140625 14.101563 0 3.679687-.613281 7.050781-1.84375 9.503906l-2.765625-4.292969-6.757813 4.292969 3.070313 4.292969h-1.535156c-7.066407 0-10.136719-6.132813-10.136719-14.101563 0-7.664062 2.765625-13.796875 9.828125-13.796875zm41.476562 0c7.066406 0 9.832032 6.132813 10.136719 14.101563 0 3.679687-.613281 7.050781-1.84375 9.503906l-2.761719-4.292969-6.761718 4.292969 3.074218 4.292969h-1.535156c-7.066406 0-10.140625-6.132813-10.140625-14.101563 0-7.664062 2.765625-13.796875 9.832031-13.796875zm-82.640625 0c7.0625 0 9.828125 6.132813 10.136719 14.101563 0 3.679687-.613281 7.050781-1.84375 9.503906l-2.765625-4.292969-6.757813 4.292969 3.070313 4.292969h-1.535156c-7.066407 0-10.136719-6.132813-10.136719-14.101563 0-7.664062 2.765625-13.796875 9.832031-13.796875zm0 0" fill="#001a7a"/></svg>

<svg xmlns="http://www.w3.org/2000/svg" xmlns:xlink="http://www.w3.org/1999/xlink" width="250px" height="250px" viewBox="0 0 250 250" version="1.1">
<g id="surface1">
<path style=" stroke:none;fill-rule:evenodd;fill:rgb(100%,100%,100%);fill-opacity:1;" d="M 250 125 C 250 194.035156 194.035156 250 125 250 C 55.964844 250 0 194.035156 0 125 C 0 55.964844 55.964844 0 125 0 C 194.035156 0 250 55.964844 250 125 Z M 250 125 "/>
<path style=" stroke:none;fill-rule:nonzero;fill:rgb(0%,10.196079%,47.843137%);fill-opacity:1;" d="M 196.429688 53.570312 L 196.429688 152.898438 L 153.109375 196.429688 L 53.570312 196.429688 L 53.570312 53.570312 Z M 82.144531 64.609375 C 70.160156 64.609375 63.09375 73.804688 63.09375 86.988281 C 63.09375 100.167969 70.160156 109.367188 82.144531 109.367188 C 84.601562 109.367188 86.75 109.058594 88.59375 108.140625 L 91.667969 112.738281 L 98.425781 108.445312 L 95.046875 103.847656 C 98.734375 99.863281 100.882812 94.039062 101.191406 86.988281 C 101.191406 73.804688 94.125 64.609375 82.144531 64.609375 Z M 123.617188 64.609375 C 111.636719 64.609375 104.570312 73.804688 104.570312 86.988281 C 104.570312 100.167969 111.636719 109.367188 123.617188 109.367188 C 126.074219 109.367188 128.226562 109.058594 130.070312 108.140625 L 133.140625 112.738281 L 139.898438 108.445312 L 136.519531 103.847656 C 140.207031 99.863281 142.359375 94.039062 142.664062 86.988281 C 142.664062 73.804688 135.597656 64.609375 123.617188 64.609375 Z M 164.785156 64.609375 C 152.804688 64.609375 145.738281 73.804688 145.738281 86.988281 C 145.738281 100.167969 152.804688 109.367188 164.785156 109.367188 C 167.242188 109.367188 169.394531 109.058594 171.238281 108.140625 L 174.308594 112.738281 L 181.066406 108.445312 L 177.6875 103.847656 C 181.375 99.863281 183.832031 94.039062 183.832031 86.988281 C 183.832031 73.804688 176.765625 64.609375 164.785156 64.609375 Z M 123.308594 73.191406 C 130.375 73.191406 133.449219 79.324219 133.449219 87.292969 C 133.449219 90.972656 132.835938 94.34375 131.605469 96.796875 L 128.839844 92.503906 L 122.082031 96.796875 L 125.152344 101.089844 L 123.617188 101.089844 C 116.550781 101.089844 113.480469 94.957031 113.480469 86.988281 C 113.480469 79.324219 116.246094 73.191406 123.308594 73.191406 Z M 164.785156 73.191406 C 171.851562 73.191406 174.617188 79.324219 174.921875 87.292969 C 174.921875 90.972656 174.308594 94.34375 173.078125 96.796875 L 170.316406 92.503906 L 163.554688 96.796875 L 166.628906 101.089844 L 165.09375 101.089844 C 158.027344 101.089844 154.953125 94.957031 154.953125 86.988281 C 154.953125 79.324219 157.71875 73.191406 164.785156 73.191406 Z M 82.144531 73.191406 C 89.207031 73.191406 91.972656 79.324219 92.28125 87.292969 C 92.28125 90.972656 91.667969 94.34375 90.4375 96.796875 L 87.671875 92.503906 L 80.914062 96.796875 L 83.984375 101.089844 L 82.449219 101.089844 C 75.382812 101.089844 72.3125 94.957031 72.3125 86.988281 C 72.3125 79.324219 75.078125 73.191406 82.144531 73.191406 Z M 82.144531 73.191406 "/>
</g>
</svg>
